X:1
T:Wagner - Elegy for Piano in Ab Major.
C:Richard Wagner.
%%score { ( 1 2 4 ) | ( 3 5 ) }
L:1/8
Q:1/4=30
M:4/4
K:Ab
V:1 treble nm="Piano" snm="Pno."
V:2 treble 
V:4 treble 
V:3 bass 
V:5 bass 
V:1
!f!"^Schmachtend."!>(! (=A3 B!>)!!p! e4) |!f!!>(! (=A3 B!>)!!p! _f4) |!p!!<(! (B3 =B c2 =d2!<)! | %3
[Q:1/4=20]!ff!!>(! (!fermata!=d4)!mp! !fermata!e4)!>)! |[Q:1/4=30]!f!!>(! (e3 =d!>)!!p! =a4) | %5
!f!!>(! (e3 =d!>)!!p! _a4) |!<(! (f4 e2 =dc | e4 _d2 cB-!<)! |!mf!!>(! B2 A4 G2)!>)! | %9
!p! (=A3 B e4) |!p!"_piu" (=A3 B e4- | e4 A4-) |!pp! A4 !fermata!A4 |] %13
V:2
 G8 | G8 | G8 | (([FG]4 [EG]4)) | [^F=A]8 | [=F_A]8 | G8 | F8 | C4 D4 | [C_G]8 | [D=G]8 | C8- | %12
 C4 C4 |] %13
V:3
 [E,D]8 | [E,D]8 | (D4 C2 =B,2) | !fermata!=B,4 !fermata!C4 | [=D,C]8 | [=D,C]8 | =B,6 C2 | %7
 [B,,F,_D]8 | A,4 B,4 | [A,,E,]8 | [E,,E,B,]8 | [A,,E,A,]8- | [A,,E,A,]4 !fermata![A,,E,A,]4 |] %13
V:4
 x8 | x8 | (G6 F2) | x8 | x8 | x8 | x8 | x8 | x8 | x8 | x8 | x8 | x8 |] %13
V:5
 x8 | x8 | (E,6 =D,2 | !fermata!C,8) | x8 | x8 | E,8 | x8 | [F,,F,]4 [E,,E,]4 | A,,,2- A,,, x z4 | %10
 x8 | x8 | x8 |] %13

